X:1
T:Title
L:1/8
Q:1/4=75
M:4/4
K:A
V:1 treble nm="Church Organ, Staff"
V:1
 A, .C3 E .A3 | z EDC- C/ z/ B, A,^D- | D2 z A- A3/2 z/ FE | .^D2 z B,/C/ DEFG | .E2 z E E^DEB,- | %5
w: By~J.~Garnett * * *|||||
 B,2 z2 z2 z[Q:1/4=90] e- | e2 dc- c/ z/ A2 F- | FBAG- G/ z/ E2 A- | A2 GB- B3/2 z/ Ac- | %9
w: ||||
 cdcB- B/ z/ z z e | dcBA- A/ z/ A2 G | FBAG- G/ z/ E2 G | FGAB- B/ z/ c2 B | AGFE- E/ z/ z z B | %14
w: |||||
 AGAB- B/ z/ e2 ^d | cBAG- G/ z/ E2 d- | d2 Bc- c3/2 z/ AG | ABcB- B/ z/ z z d- | d2 cc B A2 G | %19
w: |||||
 FBAG- G/ z/ E2 c- | c2 Ad- d3/2 z/ ^de- | e G2 A- A/ z/ z z2 |] %22
w: |||

